X: 5935
T: Cameronian, The
R: reel
M: 4/4
K: Dmajor
|:A2 FA DAFA|GE~E2 GABd|A2 FA DAFA|GBAG FDD F|
[1 A2 FA DAFA|GE~E2 GABd|~A3 B ADFA|BdAG FDD F:|
[2 A ~F3 dFAF|GE~E2 GABd|~A3 B ADFA|BdAG FDD F||
|:A2dc dedA|(3Bcd ef gfed|(3cBA eA fAeA|(3Bcd ef ~g3e|
faeg faeg|fdec defg|af ge fdec|dBAG FDD B:|

